icons/organization-24.svg

<svg width="24" height="24" viewBox="0 0 24 24" fill="none" xmlns="http://www.w3.org/2000/svg">
<path fill-rule="evenodd" clip-rule="evenodd" d="M19.65 10.175C19.8985 9.84363 20.3686 9.77647 20.7 10.025L21.7 10.775C22.2036 11.1527 22.5 11.7455 22.5 12.375V20C22.5 21.1043 21.6051 22 20.5003 22H16.4375C16.0233 22 15.6875 21.6642 15.6875 21.25C15.6875 20.8358 16.0233 20.5 16.4375 20.5H20.5003C20.7762 20.5 21 20.2764 21 20V12.375C21 12.2176 20.9259 12.0694 20.8 11.975L19.8 11.225C19.4686 10.9765 19.4015 10.5064 19.65 10.175Z" fill="black"/>
<path d="M17.25 3V20C17.25 20.6904 16.6904 21.25 16 21.25H12.25V18.25H7.75V21.25H4C3.30964 21.25 2.75 20.6904 2.75 20V3C2.75 2.30964 3.30964 1.75 4 1.75H16C16.6904 1.75 17.25 2.30964 17.25 3Z" fill="white"/>
<path fill-rule="evenodd" clip-rule="evenodd" d="M4 20.5C3.72386 20.5 3.5 20.2761 3.5 20V3C3.5 2.72386 3.72386 2.5 4 2.5H16C16.2761 2.5 16.5 2.72386 16.5 3V20C16.5 20.2761 16.2761 20.5 16 20.5H13V18.25C13 17.8358 12.6642 17.5 12.25 17.5H7.75C7.33579 17.5 7 17.8358 7 18.25V20.5H4ZM2 20C2 21.1046 2.89543 22 4 22H7.75C8.16421 22 8.5 21.6642 8.5 21.25V19H11.5V21.25C11.5 21.6642 11.8358 22 12.25 22H16C17.1046 22 18 21.1046 18 20V3C18 1.89543 17.1046 1 16 1H4C2.89543 1 2 1.89543 2 3V20Z" fill="black"/>
<path fill-rule="evenodd" clip-rule="evenodd" d="M5.5 12.75C5.5 12.3358 5.83579 12 6.25 12H6.75C7.16421 12 7.5 12.3358 7.5 12.75C7.5 13.1642 7.16421 13.5 6.75 13.5H6.25C5.83579 13.5 5.5 13.1642 5.5 12.75Z" fill="black"/>
<path fill-rule="evenodd" clip-rule="evenodd" d="M5.5 9.25C5.5 8.83579 5.83579 8.5 6.25 8.5H6.75C7.16421 8.5 7.5 8.83579 7.5 9.25C7.5 9.66421 7.16421 10 6.75 10H6.25C5.83579 10 5.5 9.66421 5.5 9.25Z" fill="black"/>
<path fill-rule="evenodd" clip-rule="evenodd" d="M5.5 5.75C5.5 5.33579 5.83579 5 6.25 5H6.75C7.16421 5 7.5 5.33579 7.5 5.75C7.5 6.16421 7.16421 6.5 6.75 6.5H6.25C5.83579 6.5 5.5 6.16421 5.5 5.75Z" fill="black"/>
<path fill-rule="evenodd" clip-rule="evenodd" d="M9 12.75C9 12.3358 9.33579 12 9.75 12H10.25C10.6642 12 11 12.3358 11 12.75C11 13.1642 10.6642 13.5 10.25 13.5H9.75C9.33579 13.5 9 13.1642 9 12.75Z" fill="black"/>
<path fill-rule="evenodd" clip-rule="evenodd" d="M9 9.25C9 8.83579 9.33579 8.5 9.75 8.5H10.25C10.6642 8.5 11 8.83579 11 9.25C11 9.66421 10.6642 10 10.25 10H9.75C9.33579 10 9 9.66421 9 9.25Z" fill="black"/>
<path fill-rule="evenodd" clip-rule="evenodd" d="M9 5.75C9 5.33579 9.33579 5 9.75 5H10.25C10.6642 5 11 5.33579 11 5.75C11 6.16421 10.6642 6.5 10.25 6.5H9.75C9.33579 6.5 9 6.16421 9 5.75Z" fill="black"/>
<path fill-rule="evenodd" clip-rule="evenodd" d="M12.5 12.75C12.5 12.3358 12.8358 12 13.25 12H13.75C14.1642 12 14.5 12.3358 14.5 12.75C14.5 13.1642 14.1642 13.5 13.75 13.5H13.25C12.8358 13.5 12.5 13.1642 12.5 12.75Z" fill="black"/>
<path fill-rule="evenodd" clip-rule="evenodd" d="M12.5 9.25C12.5 8.83579 12.8358 8.5 13.25 8.5H13.75C14.1642 8.5 14.5 8.83579 14.5 9.25C14.5 9.66421 14.1642 10 13.75 10H13.25C12.8358 10 12.5 9.66421 12.5 9.25Z" fill="black"/>
<path fill-rule="evenodd" clip-rule="evenodd" d="M12.5 5.75C12.5 5.33579 12.8358 5 13.25 5H13.75C14.1642 5 14.5 5.33579 14.5 5.75C14.5 6.16421 14.1642 6.5 13.75 6.5H13.25C12.8358 6.5 12.5 6.16421 12.5 5.75Z" fill="black"/>
</svg>

<svg xmlns="http://www.w3.org/2000/svg" width="24" height="24" viewBox="0 0 24 24"><path fill-rule="evenodd" d="M19.65 10.175a.75.75 0 011.05-.15l1 .75a2 2 0 01.8 1.6V20a2 2 0 01-2 2h-4.063a.75.75 0 010-1.5H20.5a.5.5 0 00.5-.5v-7.625a.5.5 0 00-.2-.4l-1-.75a.75.75 0 01-.15-1.05z"/><path d="M17.25 3v17c0 .69-.56 1.25-1.25 1.25h-3.75v-3h-4.5v3H4c-.69 0-1.25-.56-1.25-1.25V3c0-.69.56-1.25 1.25-1.25h12c.69 0 1.25.56 1.25 1.25z"/><path fill-rule="evenodd" d="M4 20.5a.5.5 0 01-.5-.5V3a.5.5 0 01.5-.5h12a.5.5 0 01.5.5v17a.5.5 0 01-.5.5h-3v-2.25a.75.75 0 00-.75-.75h-4.5a.75.75 0 00-.75.75v2.25H4zM2 20a2 2 0 002 2h3.75a.75.75 0 00.75-.75V19h3v2.25c0 .414.336.75.75.75H16a2 2 0 002-2V3a2 2 0 00-2-2H4a2 2 0 00-2 2v17z"/><path fill-rule="evenodd" d="M5.5 12.75a.75.75 0 01.75-.75h.5a.75.75 0 010 1.5h-.5a.75.75 0 01-.75-.75zm0-3.5a.75.75 0 01.75-.75h.5a.75.75 0 010 1.5h-.5a.75.75 0 01-.75-.75zm0-3.5A.75.75 0 016.25 5h.5a.75.75 0 010 1.5h-.5a.75.75 0 01-.75-.75zm3.5 7a.75.75 0 01.75-.75h.5a.75.75 0 010 1.5h-.5a.75.75 0 01-.75-.75zm0-3.5a.75.75 0 01.75-.75h.5a.75.75 0 010 1.5h-.5A.75.75 0 019 9.25zm0-3.5A.75.75 0 019.75 5h.5a.75.75 0 010 1.5h-.5A.75.75 0 019 5.75zm3.5 7a.75.75 0 01.75-.75h.5a.75.75 0 010 1.5h-.5a.75.75 0 01-.75-.75zm0-3.5a.75.75 0 01.75-.75h.5a.75.75 0 010 1.5h-.5a.75.75 0 01-.75-.75zm0-3.5a.75.75 0 01.75-.75h.5a.75.75 0 010 1.5h-.5a.75.75 0 01-.75-.75z"/></svg>
